Adwaita++-Dark/actions/16/office-chart-bar-stacked.svg

<svg height="16" viewBox="0 0 16 16" width="16" xmlns="http://www.w3.org/2000/svg">
  <path d="m2 2v12h12v-1h-1v-5h-4v5h-1v-11h-4v11h-1v-11z" fill="#e6ddff"/>
</svg>

<svg xmlns="http://www.w3.org/2000/svg" width="16" height="16" viewBox="0 0 16 16">
 <defs>
  <style id="current-color-scheme" type="text/css">
   .ColorScheme-Text { color:#E6DDFF; } .ColorScheme-Highlight { color:#4285f4; }
  </style>
 </defs>
 <path style="fill:currentColor" class="ColorScheme-Text" d="M 2 2 L 2 14 L 14 14 L 14 13 L 13 13 L 13 8 L 9 8 L 9 13 L 8 13 L 8 2 L 4 2 L 4 13 L 3 13 L 3 2 L 2 2 z"/>
</svg>
